src/icons/junit.svg

<?xml version="1.0" encoding="UTF-8"?>
<svg xmlns="http://www.w3.org/2000/svg" xmlns:xlink="http://www.w3.org/1999/xlink" width="32" height="32" viewBox="0 0 32 32" version="1.1">
<g id="surface1">
<path style=" stroke:none;fill-rule:nonzero;fill:rgb(0%,0%,0%);fill-opacity:1;" d="M 0.519531 2.558594 C 0.214844 2.617188 -0.00390625 2.886719 0 3.199219 L 0 28.800781 C 0 29.152344 0.289062 29.441406 0.640625 29.441406 L 31.359375 29.441406 C 31.710938 29.441406 32 29.152344 32 28.800781 L 32 3.199219 C 32 2.847656 31.710938 2.558594 31.359375 2.558594 Z M 1.28125 3.839844 L 30.71875 3.839844 L 30.71875 28.160156 L 1.28125 28.160156 Z M 26.238281 7.800781 C 26.050781 7.820312 25.882812 7.921875 25.78125 8.078125 L 24.359375 10.078125 L 23.238281 9.21875 C 22.957031 9.003906 22.554688 9.058594 22.339844 9.339844 C 22.125 9.621094 22.179688 10.023438 22.460938 10.238281 L 24.121094 11.519531 C 24.257812 11.628906 24.4375 11.675781 24.609375 11.648438 C 24.785156 11.621094 24.941406 11.523438 25.039062 11.378906 L 26.820312 8.820312 C 26.972656 8.617188 26.988281 8.339844 26.863281 8.121094 C 26.734375 7.898438 26.492188 7.773438 26.238281 7.800781 M 5.761719 8.960938 L 5.761719 10.238281 L 18.558594 10.238281 L 18.558594 8.960938 Z M 26.238281 14.199219 C 26.050781 14.21875 25.882812 14.320312 25.78125 14.480469 L 24.359375 16.480469 L 23.238281 15.621094 C 22.957031 15.40625 22.554688 15.460938 22.339844 15.742188 C 22.125 16.023438 22.179688 16.425781 22.460938 16.640625 L 24.121094 17.921875 C 24.261719 18.027344 24.433594 18.074219 24.609375 18.046875 C 24.785156 18.023438 24.941406 17.925781 25.039062 17.78125 L 26.820312 15.21875 C 26.972656 15.015625 26.988281 14.738281 26.863281 14.515625 C 26.738281 14.296875 26.492188 14.171875 26.238281 14.199219 M 5.761719 15.359375 L 5.761719 16.640625 L 18.558594 16.640625 L 18.558594 15.359375 Z M 26.238281 20.601562 C 26.050781 20.621094 25.882812 20.722656 25.78125 20.878906 L 24.359375 22.878906 L 23.238281 22.019531 C 22.957031 21.804688 22.554688 21.859375 22.339844 22.140625 C 22.125 22.421875 22.179688 22.824219 22.460938 23.039062 L 24.121094 24.320312 C 24.257812 24.429688 24.4375 24.476562 24.609375 24.449219 C 24.785156 24.421875 24.941406 24.324219 25.039062 24.179688 L 26.820312 21.621094 C 26.972656 21.417969 26.988281 21.144531 26.863281 20.921875 C 26.734375 20.699219 26.492188 20.574219 26.238281 20.601562 M 5.761719 21.761719 L 5.761719 23.039062 L 18.558594 23.039062 L 18.558594 21.761719 Z M 5.761719 21.761719 "/>
</g>
</svg>

<svg role="img" viewBox="0 0 32 32" xmlns="http://www.w3.org/2000/svg"><path d="M.52 2.559a.642.642 0 0 0-.52.64v25.602c0 .351.29.64.64.64h30.72c.35 0 .64-.289.64-.64V3.199c0-.351-.29-.64-.64-.64H.577zm.761 1.28H30.72V28.16H1.28Zm24.957 3.962a.627.627 0 0 0-.457.277l-1.422 2-1.12-.86a.641.641 0 0 0-.778 1.02l1.66 1.282a.636.636 0 0 0 .918-.14l1.781-2.56a.641.641 0 0 0-.582-1.02M5.762 8.96v1.277h12.797V8.961Zm20.476 5.238a.632.632 0 0 0-.457.281l-1.422 2-1.12-.859a.64.64 0 1 0-.778 1.02l1.66 1.28c.14.106.313.153.488.126a.617.617 0 0 0 .43-.266l1.781-2.562a.64.64 0 0 0-.582-1.02M5.762 15.36v1.282h12.797V15.36Zm20.476 5.243a.627.627 0 0 0-.457.277l-1.422 2-1.12-.86a.641.641 0 0 0-.778 1.02l1.66 1.281a.636.636 0 0 0 .918-.14l1.781-2.559a.641.641 0 0 0-.582-1.02m-20.476 1.16v1.277h12.797v-1.277Zm0 0" style="stroke:none;fill-rule:nonzero;fill:rgb(0%,0%,0%);fill-opacity:1"/></svg>
